; generated by PrusaSlicer 2.8.0+win64 on 2025-10-16 at 09:20:04 UTC


;
;
; 

; external perimeters extrusion width = 0.45mm
; perimeters extrusion width = 0.45mm
; infill extrusion width = 0.45mm
; solid infill extrusion width = 0.45mm
; top infill extrusion width = 0.40mm
; support material extrusion width = 0.35mm
; first layer extrusion width = 0.42mm

M73 P0 R30
M73 Q0 S30
M201 X1000 Y1000 Z200 E5000 ; sets maximum accelerations, mm/sec^2
M203 X200 Y200 Z12 E120 ; sets maximum feedrates, mm / sec
M204 S1250 T1250 ; sets acceleration (S) and retract acceleration (R), mm/sec^2
M205 X8.00 Y8.00 Z0.40 E4.50 ; sets the jerk limits, mm/sec
M205 S0 T0 ; sets the minimum extruding and travel feed rate, mm/sec

; printing object ServoHolder.STL id:0 copy 0
; stop printing object ServoHolder.STL id:0 copy 0

;TYPE:Custom
M862.3 P "MK3S" ; printer model check
M862.1 P0.4 ; nozzle diameter check
M115 U3.12.2 ; tell printer latest fw version
G90 ; use absolute coordinates
M83 ; extruder relative mode
M104 S215 ; set extruder temp
M140 S60 ; set bed temp
M190 S60 ; wait for bed temp
M109 S215 ; wait for extruder temp
G28 W ; home all without mesh bed level
G80 ; mesh bed leveling

G1 Z0.2 F720
G1 Y-3 F1000 ; go outside print area
G92 E0
G1 X60 E9 F1000 ; intro line
G1 X100 E12.5 F1000 ; intro line

G92 E0
M221 S95

; Don't change E values below. Excessive value can damage the printer.

G21 ; set units to millimeters
G90 ; use absolute coordinates
M83 ; use relative distances for extrusion

M900 K0.05 ; Filament gcode LA 1.5
M900 K30 ; Filament gcode LA 1.0




M107
;LAYER_CHANGE
;Z:0.2
;HEIGHT:0.2
G1 E-.8 F2100
G1 Z.6 F720
G1 X101.952 Y92.652 F10800
G1 Z.2 F720
G1 E.8 F2100
M204 S800
;TYPE:Skirt/Brim
;WIDTH:0.42
G1 F3300
G1 X106.452 Y88.152 E.19954
G1 X108 Y87.511 E.05253
G1 X142 Y87.511 E1.06605
G1 X143.548 Y88.152 E.05253
G1 X148.048 Y92.652 E.19954
G1 X148.551 Y93.437 E.02923
G1 X153.051 Y105.537 E.40477
G1 X153.188 Y106.285 E.02384
G1 X153.31 Y124.029 E.55636
G1 X153.19 Y125.401 E.04318
G1 X152.579 Y127.359 E.06431
G1 X151.758 Y128.733 E.05019
G1 X150.674 Y129.91 E.05017
G1 X149.371 Y130.839 E.05018
G1 X148.331 Y131.332 E.03609
G1 X146.337 Y131.81 E.06429
G1 X103.443 Y132.119 E1.34495
G1 X101.615 Y131.878 E.05781
G1 X100.128 Y131.346 E.04952
G1 X98.776 Y130.529 E.04953
G1 X97.613 Y129.459 E.04955
G1 X96.685 Y128.178 E.0496
G1 X96.108 Y126.956 E.04237
G1 X95.823 Y126.013 E.03089
G1 X95.621 Y124.63 E.04382
G1 X96.816 Y106.152 E.58058
G1 X96.949 Y105.537 E.01973
G1 X101.449 Y93.437 E.40477
G1 X101.92 Y92.703 E.02734
M204 S1000
;WIPE_START
G1 F8640
G1 X101.952 Y92.652 E-.0139
G1 X104.36 Y90.245 E-.7861
;WIPE_END
G1 Z.6 F720
; printing object ServoHolder.STL id:0 copy 0
G1 X99.091 Y120.78 F10800
G1 Z.2 F720
G1 E.8 F2100
M204 S800
;TYPE:Support material
G1 F3300
G1 X108.117 Y120.78 E.283
G1 X108.792 Y121.917 E.04146
G1 X109.141 Y123.013 E.03606
G1 X109.264 Y124.156 E.03604
G1 X109.157 Y125.299 E.03599
G1 X108.825 Y126.397 E.03597
G1 X108.282 Y127.406 E.03593
G1 X107.55 Y128.287 E.03591
G1 X106.658 Y129.004 E.03588
G1 X105.64 Y129.531 E.03594
G1 X104.537 Y129.844 E.03595
G1 X103.428 Y129.93 E.03488
G1 X102.253 Y129.784 E.03712
G1 X101.163 Y129.418 E.03605
G1 X100.169 Y128.84 E.03605
G1 X99.309 Y128.075 E.03609
G1 X98.618 Y127.153 E.03613
G1 X98.126 Y126.11 E.03616
G1 X97.853 Y124.989 E.03618
G1 X97.799 Y124.423 E.01783
G1 X97.845 Y123.379 E.03277
G1 X98.115 Y122.284 E.03536
G1 X98.594 Y121.262 E.03539
G1 X98.949 Y120.78 E.01877
G1 X99.034 Y120.78 E.00267
M204 S1000
G1 X99.034 Y120.78 F10800
G1 X108.66 Y126.346
M204 S800
G1 F3300
G1 X108.66 Y122.622 E.11676
G1 X108.479 Y122.053 E.01872
G1 X108.241 Y121.627 E.0153
G1 X108.241 Y126.766 E.16113
G1 X107.822 Y127.429 E.02459
G1 X107.822 Y121.119 E.19785
G1 X107.403 Y121.119 E.01314
G1 X107.403 Y127.933 E.21365
G1 X106.984 Y128.306 E.01759
G1 X106.984 Y121.119 E.22534
G1 X106.565 Y121.119 E.01314
G1 X106.565 Y128.643 E.23591
G1 X106.146 Y128.887 E.0152
G1 X106.146 Y121.119 E.24356
G1 X105.727 Y121.119 E.01314
G1 X105.727 Y129.103 E.25033
G1 X105.514 Y129.213 E.00752
G1 X105.308 Y129.272 E.00672
G1 X105.308 Y121.119 E.25563
G1 X104.889 Y121.119 E.01314
G1 X104.889 Y129.391 E.25936
G1 X104.47 Y129.509 E.01365
G1 X104.47 Y121.119 E.26306
G1 X104.051 Y121.119 E.01314
G1 X104.051 Y129.542 E.2641
G1 X103.632 Y129.574 E.01318
G1 X103.632 Y121.119 E.2651
G1 X103.213 Y121.119 E.01314
G1 X103.213 Y129.568 E.26491
G1 X102.794 Y129.525 E.01321
G1 X102.794 Y121.119 E.26356
G1 X102.375 Y121.119 E.01314
G1 X102.375 Y129.46 E.26153
G1 X101.956 Y129.34 E.01367
G1 X101.956 Y121.119 E.25776
G1 X101.537 Y121.119 E.01314
G1 X101.537 Y129.195 E.25322
G1 X101.118 Y129.008 E.01439
G1 X101.118 Y121.119 E.24735
G1 X100.699 Y121.119 E.01314
G1 X100.699 Y128.773 E.23999
G1 X100.28 Y128.493 E.0158
G1 X100.28 Y121.119 E.23121
G1 X99.861 Y121.119 E.01314
G1 X99.861 Y128.136 E.22001
G1 X99.442 Y127.702 E.01891
G1 X99.442 Y121.119 E.20641
G1 X99.12 Y121.119 E.0101
G1 X99.023 Y121.251 E.00514
G1 X99.023 Y127.144 E.18477
G1 X98.604 Y126.373 E.02751
G1 X98.604 Y122.038 E.13592
G1 X98.436 Y122.398 E.01246
G1 X98.185 Y123.417 E.03291
G1 X98.185 Y125.716 E.07208
M204 S1000
;WIPE_START
G1 F8640
G1 X98.185 Y123.417 E-.53085
G1 X98.436 Y122.398 E-.24232
G1 X98.485 Y122.293 E-.02683
;WIPE_END
G1 Z.6 F720
G1 X105.178 Y114.7 F10800
G1 Z.2 F720
G1 E.8 F2100
M73 Q1 S30
M204 S800
G1 F3300
G1 X104.589 Y115.72 E.03693
G1 X103.411 Y115.72 E.03694
G1 X102.822 Y114.7 E.03693
G1 X103.411 Y113.68 E.03693
M73 P1 R30
G1 X104.589 Y113.68 E.03694
G1 X105.15 Y114.651 E.03516
M204 S1000
G1 X105.15 Y114.651 F10800
G1 X104.47 Y115.55
M204 S800
G1 F3300
G1 X104.47 Y114.153 E.0438
G1 X104.393 Y114.019 E.00485
G1 X104.051 Y114.019 E.01072
G1 X104.051 Y115.381 E.0427
G1 X103.632 Y115.381 E.01314
G1 X103.632 Y113.85 E.048
M204 S1000
;WIPE_START
G1 F8640
G1 X103.632 Y115.381 E-.35351
G1 X104.051 Y115.381 E-.09675
G1 X104.051 Y114.019 E-.31449
G1 X104.204 Y114.019 E-.03525
;WIPE_END
G1 Z.6 F720
G1 X144.257 Y120.78 F10800
G1 Z.2 F720
G1 E.8 F2100
M204 S800
G1 F3300
G1 X150.032 Y120.78 E.18107
G1 X150.631 Y121.799 E.03706
G1 X150.993 Y122.897 E.03625
G1 X151.121 Y124.044 E.03619
G1 X151.011 Y125.192 E.03616
G1 X150.668 Y126.292 E.03613
G1 X150.107 Y127.297 E.03609
G1 X149.352 Y128.166 E.03609
G1 X148.435 Y128.861 E.03608
G1 X147.394 Y129.354 E.03612
G1 X146.274 Y129.623 E.03612
G1 X145.121 Y129.656 E.03617
G1 X143.983 Y129.451 E.03626
G1 X142.91 Y129.016 E.0363
G1 X141.948 Y128.366 E.0364
G1 X141.183 Y127.575 E.0345
G1 X140.534 Y126.544 E.0382
G1 X140.313 Y126.024 E.01772
G1 X140.027 Y124.922 E.0357
G1 X139.972 Y123.739 E.03713
G1 X140.127 Y122.701 E.03291
G1 X140.518 Y121.639 E.03548
G1 X141.051 Y120.78 E.0317
G1 X144.201 Y120.78 E.09877
M204 S1000
G1 X144.201 Y120.78 F10800
G1 X150.558 Y126.075
M204 S800
G1 F3300
G1 X150.558 Y122.661 E.10704
G1 X150.32 Y121.939 E.02384
G1 X150.139 Y121.628 E.01128
G1 X150.139 Y126.544 E.15414
G1 X149.72 Y127.225 E.02507
G1 X149.72 Y121.119 E.19145
G1 X149.301 Y121.119 E.01314
G1 X149.301 Y127.707 E.20656
G1 X148.882 Y128.096 E.01793
G1 X148.882 Y121.119 E.21876
G1 X148.463 Y121.119 E.01314
G1 X148.463 Y128.414 E.22873
G1 X148.044 Y128.67 E.0154
G1 X148.044 Y121.119 E.23676
G1 X147.625 Y121.119 E.01314
G1 X147.625 Y128.869 E.243
G1 X147.206 Y129.05 E.01431
G1 X147.206 Y121.119 E.24867
G1 X146.787 Y121.119 E.01314
G1 X146.787 Y129.15 E.25181
G1 X146.368 Y129.251 E.01351
G1 X146.368 Y121.119 E.25497
G1 X145.949 Y121.119 E.01314
G1 X145.949 Y129.293 E.25629
G1 X145.53 Y129.305 E.01314
G1 X145.53 Y121.119 E.25667
G1 X145.111 Y121.119 E.01314
G1 X145.111 Y129.309 E.25679
G1 X144.692 Y129.234 E.01335
G1 X144.692 Y121.119 E.25444
G1 X144.273 Y121.119 E.01314
G1 X144.273 Y129.159 E.25209
G1 X144.078 Y129.124 E.00621
G1 X143.854 Y129.032 E.00759
G1 X143.854 Y121.119 E.24811
G1 X143.435 Y121.119 E.01314
G1 X143.435 Y128.862 E.24278
G1 X143.016 Y128.678 E.01435
G1 X143.016 Y121.119 E.23701
G1 X142.597 Y121.119 E.01314
G1 X142.597 Y128.395 E.22813
G1 X142.178 Y128.112 E.01585
G1 X142.178 Y121.119 E.21926
G1 X141.759 Y121.119 E.01314
G1 X141.759 Y127.683 E.20581
G1 X141.34 Y127.205 E.01993
G1 X141.34 Y121.119 E.19082
G1 X141.24 Y121.119 E.00314
G1 X140.921 Y121.633 E.01897
G1 X140.921 Y126.54 E.15386
G1 X140.502 Y125.494 E.03533
G1 X140.502 Y122.174 E.1041
M204 S1000
;WIPE_START
G1 F8640
G1 X140.502 Y125.494 E-.7666
G1 X140.556 Y125.628 E-.0334
;WIPE_END
G1 Z.6 F720
G1 X147.178 Y114.7 F10800
G1 Z.2 F720
G1 E.8 F2100
M204 S800
G1 F3300
G1 X146.589 Y115.72 E.03693
G1 X145.411 Y115.72 E.03694
G1 X144.822 Y114.7 E.03693
G1 X145.411 Y113.68 E.03693
G1 X146.589 Y113.68 E.03694
G1 X147.15 Y114.651 E.03516
M204 S1000
G1 X147.15 Y114.651 F10800
G1 X146.368 Y115.55
M204 S800
G1 F3300
G1 X146.368 Y114.019 E.048
G1 X145.949 Y114.019 E.01314
G1 X145.949 Y115.381 E.0427
G1 X145.607 Y115.381 E.01072
G1 X145.53 Y115.247 E.00485
G1 X145.53 Y113.85 E.0438
M204 S1000
;WIPE_START
G1 F8640
G1 X145.53 Y115.247 E-.32257
G1 X145.607 Y115.381 E-.03569
G1 X145.949 Y115.381 E-.07897
G1 X145.949 Y114.019 E-.31449
G1 X146.158 Y114.019 E-.04828
;WIPE_END
G1 Z.6 F720
G1 X120.402 Y110.484 F10800
G1 Z.2 F720
G1 E.8 F2100
M204 S800
;TYPE:External perimeter
;WIDTH:0.478334
G1 F3300
G1 X119.923 Y109.654 E.0347
;WIDTH:0.449167
G1 X119.428 Y108.796 E.03346
;WIDTH:0.42
G1 X119.419 Y108.624 E.0054
G1 X119.806 Y107.765 E.02954
G1 X120.306 Y106.885 E.03173
G1 X120.47 Y106.79 E.00594
G1 X122.458 Y106.79 E.06233
G1 X122.622 Y106.885 E.00594
G1 X123.116 Y107.748 E.03118
G1 X123.513 Y108.556 E.02823
;WIDTH:0.420264
G1 X123.561 Y108.676 E.00406
G1 X123.537 Y108.795 E.00381
;WIDTH:0.420767
G1 X123.058 Y109.621 E.03
;WIDTH:0.435354
G1 X122.583 Y110.4 E.02977
;WIDTH:0.463061
G1 X122.552 Y110.456 E.00224
;WIDTH:0.490767
G1 X122.521 Y110.511 E.00235
G1 X120.447 Y110.511 E.07723
M204 S1000
;WIPE_START
G1 F8640
G1 X120.402 Y110.484 E-.01212
G1 X119.923 Y109.654 E-.22127
G1 X119.428 Y108.796 E-.22872
G1 X119.419 Y108.624 E-.03977
G1 X119.806 Y107.765 E-.21755
G1 X119.978 Y107.462 E-.08057
;WIPE_END
G1 Z.6 F720
G1 X126.062 Y112.484 F10800
G1 Z.2 F720
G1 E.8 F2100
M204 S800
;WIDTH:0.478333
G1 F3300
G1 X126.046 Y112.511 E.00114
;WIDTH:0.490762
G1 X123.943 Y112.511 E.07831
G1 X123.675 Y112.069 E.01925
;WIDTH:0.456248
G1 X123.408 Y111.626 E.01778
;WIDTH:0.43533
G1 X122.92 Y110.798 E.03136
;WIDTH:0.463049
G1 X122.893 Y110.749 E.00195
;WIDTH:0.490767
G1 X122.866 Y110.7 E.00208
G1 X122.888 Y110.66 E.0017
;WIDTH:0.464056
G1 X122.909 Y110.621 E.00155
;WIDTH:0.437345
G1 X123.38 Y109.82 E.03048
;WIDTH:0.420863
G1 X123.863 Y108.984 E.03034
;WIDTH:0.420264
G1 X123.956 Y108.88 E.00438
G1 X124.707 Y108.817 E.02365
;WIDTH:0.419999
G1 X125.244 Y108.812 E.01684
G1 X125.943 Y108.889 E.02205
G1 X126.101 Y108.984 E.00578
;WIDTH:0.449166
G1 X126.596 Y109.842 E.03346
;WIDTH:0.478333
G1 X127.092 Y110.7 E.03588
G1 X126.092 Y112.432 E.07241
M204 S1000
;WIPE_START
G1 F8640
G1 X126.062 Y112.484 E-.01386
G1 X126.046 Y112.511 E-.00725
G1 X123.943 Y112.511 E-.48559
G1 X123.675 Y112.069 E-.11935
G1 X123.408 Y111.626 E-.11943
G1 X123.288 Y111.423 E-.05452
;WIPE_END
G1 Z.6 F720
G1 X120.402 Y114.484 F10800
G1 Z.2 F720
G1 E.8 F2100
M204 S800
;WIDTH:0.478334
G1 F3300
G1 X119.372 Y112.7 E.07458
G1 X119.4 Y112.653 E.00198
;WIDTH:0.449167
G1 X119.427 Y112.606 E.00183
G1 X119.923 Y111.747 E.03351
;WIDTH:0.478334
G1 X120.418 Y110.889 E.03586
;WIDTH:0.490767
G1 X122.521 Y110.889 E.07831
G1 X122.789 Y111.331 E.01925
;WIDTH:0.45625
G1 X123.056 Y111.774 E.01778
;WIDTH:0.435331
G1 X123.544 Y112.602 E.03136
;WIDTH:0.463047
G1 X123.571 Y112.651 E.00195
;WIDTH:0.490762
G1 X123.598 Y112.7 E.00208
G1 X123.341 Y113.139 E.01894
;WIDTH:0.456247
G1 X123.083 Y113.579 E.01753
;WIDTH:0.43533
G1 X122.584 Y114.4 E.03135
;WIDTH:0.463049
G1 X122.553 Y114.456 E.00224
;WIDTH:0.490767
G1 X122.521 Y114.511 E.00237
G1 X120.447 Y114.511 E.07723
M204 S1000
G1 X120.447 Y114.511 F10800
G1 X120.076 Y114.727
M204 S800
;WIDTH:0.478334
G1 F3300
G1 X119.592 Y115.565 E.03504
;WIDTH:0.449887
G1 X119.093 Y116.43 E.03379
;WIDTH:0.42144
G1 X118.963 Y116.508 E.00477
;WIDTH:0.419999
G1 X118.46 Y116.575 E.01591
G1 X117.649 Y116.586 E.02543
G1 X117.028 Y116.541 E.01952
;WIDTH:0.420685
G1 X116.881 Y116.448 E.00546
G1 X116.385 Y115.59 E.03113
;WIDTH:0.435355
G1 X115.92 Y114.798 E.02997
;WIDTH:0.463061
G1 X115.893 Y114.749 E.00195
;WIDTH:0.490767
G1 X115.866 Y114.7 E.00208
G1 X116.123 Y114.261 E.01894
;WIDTH:0.45625
G1 X116.381 Y113.821 E.01753
;WIDTH:0.435329
G1 X116.88 Y113 E.03135
;WIDTH:0.463045
G1 X116.911 Y112.944 E.00224
;WIDTH:0.490761
G1 X116.943 Y112.889 E.00237
G1 X119.046 Y112.889 E.07831
;WIDTH:0.478334
G1 X119.546 Y113.754 E.03617
;WIDTH:0.449887
G1 X120.046 Y114.62 E.03384
G1 X120.069 Y114.66 E.00156
;WIDTH:0.478334
G1 X120.078 Y114.676 E.00066
M204 S1000
G1 X120.078 Y114.676 F10800
G1 X120.402 Y114.916
M204 S800
G1 F3300
G1 X120.418 Y114.889 E.00114
;WIDTH:0.490767
G1 X122.521 Y114.889 E.07831
G1 X122.788 Y115.331 E.01923
;WIDTH:0.455816
G1 X123.055 Y115.774 E.01776
;WIDTH:0.420864
G1 X123.537 Y116.605 E.03019
;WIDTH:0.420723
G1 X123.561 Y116.724 E.00381
G1 X123.29 Y117.297 E.01991
;WIDTH:0.419999
G1 X122.622 Y118.515 E.04356
G1 X122.458 Y118.61 E.00594
G1 X120.47 Y118.61 E.06233
G1 X120.305 Y118.512 E.00602
G1 X119.619 Y117.258 E.04482
G1 X119.417 Y116.77 E.01656
G1 X119.428 Y116.604 E.00522
;WIDTH:0.449167
G1 X119.923 Y115.746 E.03346
;WIDTH:0.478334
G1 X120.372 Y114.968 E.03252
M204 S1000
;WIPE_START
G1 F8640
G1 X120.402 Y114.916 E-.01386
G1 X120.418 Y114.889 E-.00725
G1 X122.521 Y114.889 E-.48559
G1 X122.788 Y115.331 E-.11923
G1 X123.055 Y115.774 E-.11943
G1 X123.174 Y115.979 E-.05464
;WIPE_END
G1 Z.6 F720
G1 X126.062 Y112.916 F10800
G1 Z.2 F720
G1 E.8 F2100
M204 S800
G1 F3300
G1 X127.092 Y114.7 E.07458
G1 X126.592 Y115.565 E.03617
;WIDTH:0.449887
G1 X126.093 Y116.43 E.03379
;WIDTH:0.42144
G1 X125.963 Y116.508 E.00477
;WIDTH:0.419999
G1 X125.46 Y116.575 E.01591
G1 X124.649 Y116.586 E.02543
G1 X124.028 Y116.541 E.01952
;WIDTH:0.420685
G1 X123.881 Y116.448 E.00546
G1 X123.385 Y115.59 E.03113
;WIDTH:0.435354
G1 X122.92 Y114.798 E.02997
;WIDTH:0.463061
G1 X122.893 Y114.749 E.00195
;WIDTH:0.490767
G1 X122.866 Y114.7 E.00208
G1 X123.123 Y114.261 E.01894
;WIDTH:0.456249
G1 X123.381 Y113.821 E.01753
;WIDTH:0.43533
G1 X123.88 Y113 E.03135
;WIDTH:0.463046
G1 X123.911 Y112.944 E.00224
;WIDTH:0.490762
G1 X123.943 Y112.889 E.00237
G1 X126.018 Y112.889 E.07727
M204 S1000
;WIPE_START
G1 F8640
G1 X126.062 Y112.916 E-.01192
G1 X127.092 Y114.7 E-.47566
G1 X126.592 Y115.565 E-.2307
G1 X126.415 Y115.872 E-.08172
;WIPE_END
G1 Z.6 F720
G1 X130.553 Y116.686 F10800
G1 Z.2 F720
G1 E.8 F2100
M204 S800
;WIDTH:0.420723
G1 F3300
G1 X130.561 Y116.724 E.00122
G1 X130.29 Y117.297 E.01991
;WIDTH:0.419999
G1 X129.622 Y118.515 E.04356
G1 X129.458 Y118.61 E.00594
G1 X127.47 Y118.61 E.06233
G1 X127.305 Y118.512 E.00602
G1 X126.61 Y117.239 E.04548
G1 X126.417 Y116.77 E.0159
G1 X126.428 Y116.604 E.00522
;WIDTH:0.449166
G1 X126.923 Y115.746 E.03346
;WIDTH:0.478333
G1 X127.418 Y114.889 E.03583
;WIDTH:0.490767
G1 X129.521 Y114.889 E.07831
G1 X129.788 Y115.331 E.01923
;WIDTH:0.455815
G1 X130.055 Y115.774 E.01776
;WIDTH:0.420863
G1 X130.537 Y116.605 E.03019
;WIDTH:0.420723
G1 X130.541 Y116.627 E.0007
M204 S1000
;WIPE_START
G1 F8640
G1 X130.553 Y116.686 E-.0139
G1 X130.561 Y116.724 E-.00897
G1 X130.29 Y117.297 E-.14636
G1 X129.622 Y118.515 E-.32076
M73 P1 R29
G1 X129.458 Y118.61 E-.04376
G1 X128.305 Y118.61 E-.26625
;WIPE_END
G1 Z.6 F720
G1 X134.076 Y114.673 F10800
G1 Z.2 F720
G1 E.8 F2100
M204 S800
;WIDTH:0.478335
G1 F3300
G1 X134.092 Y114.7 E.00114
G1 X133.592 Y115.565 E.03617
;WIDTH:0.449887
G1 X133.093 Y116.43 E.03379
;WIDTH:0.42144
G1 X132.945 Y116.511 E.00531
;WIDTH:0.419999
G1 X132.437 Y116.577 E.01606
G1 X131.568 Y116.587 E.02725
G1 X131.028 Y116.541 E.01699
;WIDTH:0.420685
G1 X130.881 Y116.448 E.00546
G1 X130.863 Y116.417 E.00113
;WIDTH:0.420768
G1 X130.385 Y115.59 E.03001
;WIDTH:0.435354
G1 X129.92 Y114.798 E.02997
;WIDTH:0.463061
G1 X129.893 Y114.749 E.00195
